X:965
T:Reel 965
M:4/4
K:Gmaj
L:1/8
g>f (3fed e>c (3BAG |cABc g>G (3cBA |Ggf (3edc BcBA (3BcA | (3efg  (3fga g2:|fd|e>c (3cBc e>f (3gfg |agfa e>g (3fed |e>A (3cBA f>g (3fed |a>A (3AAA e2fg|a>g (3fgf g>f (3fff |ceBc B2Bc|ABcd e2 (3efg |agfg ecdG|
